X:337
T:White Leaf, The
B:Music of Ireland Bk 4, 27
N:From Sean McGuire, fiddle
Z:Nigel Gatherer
L:1/8
M:4/4
K:A
(EFG|A2 cA eAcA|(3Bcd ef edcA|Bcde fdde|fdad fdcB|
A2 cA eAcA|(3Bcd ef edcA|Bcde fgaf|edcB A2:|
ce|aA A2 cAce|a2 ga fece|bf f2 fece|bffe ^defg|
aA A2 cAce|a2 ga faec|Bcde fgaf|edcB A2:|]
<end>
<start>
